X: 136
T:That's Right Too
R:reel
C:Liz Carroll
M:4/4
L:1/8
K:D
F|D2FA FE~E2|Bdef edBd|D2FA FE~E2|J~B3A FE~E2|
DEFA FE~E2|Bdef edBd|AD~D2 AddB|AFEF D3:|
a|afef dcdA|BAFD EDDa|afef ~d3B|Adge f2fe|
cdef edBA|BcdA FE~E2|AD~D2 AddB|AFEF D3:|
